assets/customize.svg

<?xml version="1.0" encoding="UTF-8" standalone="no"?>
<svg width="156px" height="172px" viewBox="0 0 156 172" version="1.1" xmlns="http://www.w3.org/2000/svg" xmlns:xlink="http://www.w3.org/1999/xlink" xmlns:sketch="http://www.bohemiancoding.com/sketch/ns">
    <!-- Generator: Sketch 3.3.1 (12002) - http://www.bohemiancoding.com/sketch -->
    <title>customize</title>
    <desc>Created with Sketch.</desc>
    <defs></defs>
    <g id="Page-1" stroke="none" stroke-width="1" fill="none" fill-rule="evenodd" sketch:type="MSPage">
        <g id="customize" sketch:type="MSLayerGroup" fill="#FFCCBA">
            <path d="M118.32493,123.582464 L74.7730652,169.029045 L76.9390974,171.104691 L122.478266,123.582463 L80.7206306,80.2131323 L78.5595349,82.2939171 L118.32493,123.582464 Z" id="Shape" sketch:type="MSShapeGroup"></path>
            <path d="M42.3698536,122.04082 L4.26303897,83.0078388 L2.11640405,85.1035388 L40.2232186,124.13652 L42.3698536,122.04082 L42.3698536,122.04082 Z" id="Shape" sketch:type="MSShapeGroup"></path>
            <path d="M3.5,61.5428316 L3.5,6.15157666 L0.5,6.15157666 L0.5,61.5428316 L3.5,61.5428316 L3.5,61.5428316 Z" id="Shape" sketch:type="MSShapeGroup"></path>
            <path d="M44.4021636,46.1474074 L78.4506086,9.21990413 L76.2450532,7.18630511 L42.1966082,44.1138084 L44.4021636,46.1474074 L44.4021636,46.1474074 Z" id="Shape" sketch:type="MSShapeGroup"></path>
            <path d="M101.382027,3.5 L155.496048,3.5 L155.496048,0.5 L101.382027,0.5 L101.382027,3.5 L101.382027,3.5 Z" id="Shape" sketch:type="MSShapeGroup"></path>
            <path d="M114.328658,46.1784579 L150.601811,83.3332113 L152.748445,81.2375113 L116.475292,44.0827579 L114.328658,46.1784579 L114.328658,46.1784579 Z" id="Shape" sketch:type="MSShapeGroup"></path>
            <path d="M151.5,157.964646 L154.5,157.964646 L154.5,106.676447 L151.5,106.676447 L151.5,157.964646 Z" id="Shape" sketch:type="MSShapeGroup"></path>
        </g>
    </g>
</svg>

<svg width="156" height="172" viewBox="0 0 156 172" xmlns="http://www.w3.org/2000/svg"><title>customize</title><path d="M118.325 123.582L74.773 169.03l2.166 2.076 45.54-47.523-41.759-43.37-2.161 2.08 39.765 41.29zM42.37 122.04L4.263 83.009l-2.147 2.096 38.107 39.033 2.147-2.096zM3.5 61.543V6.152h-3v55.39h3zm40.902-15.396L78.451 9.22l-2.206-2.034-34.048 36.928 2.205 2.033zM101.382 3.5h54.114v-3h-54.114v3zm12.947 42.678l36.273 37.155 2.146-2.095-36.273-37.155-2.146 2.095zM151.5 157.965h3v-51.289h-3v51.289z" fill="#FFCCBA" fill-rule="evenodd"/></svg>
